icons/editor/small-caps-all.svg

<svg width="32" height="32" viewBox="0 0 32 32" xmlns="http://www.w3.org/2000/svg">
    <path fill-rule="evenodd" d="M10 10h5V8H3v2h5v14h2V10zm14 0h5V8H17v2h5v14h2V10z"/>
</svg>

<svg width="32" height="32" viewBox="0 0 32 32" fill="none" xmlns="http://www.w3.org/2000/svg">
<path fill-rule="evenodd" clip-rule="evenodd" d="M10 10L15 10V8H3V10H8V24H10V10ZM24 10L29 10V8H17V10H22V24H24V10Z" fill="black"/>
</svg>
